icons/themes/default/billing.svg

<svg viewBox="0 0 16 16" fill="none" xmlns="http://www.w3.org/2000/svg">
<path fill-rule="evenodd" clip-rule="evenodd" d="M6.17429 1.72434C6.24743 1.6512 6.34663 1.61011 6.45006 1.61011H9.57006C9.6735 1.61011 9.7727 1.6512 9.84584 1.72434C9.91898 1.79748 9.96006 1.89667 9.96006 2.00011V3.73011H6.06006V2.00011C6.06006 1.89667 6.10115 1.79747 6.17429 1.72434ZM10.9601 2.00011V3.73011H12.6801C13.3505 3.73011 13.9451 3.89805 14.3686 4.32156C14.7921 4.74506 14.9601 5.3397 14.9601 6.01011V7.78481V7.7949V11.7901C14.9601 12.4605 14.7921 13.0552 14.3686 13.4787C13.9451 13.9022 13.3505 14.0701 12.6801 14.0701H3.34006C2.66966 14.0701 2.07502 13.9022 1.65151 13.4787C1.228 13.0552 1.06006 12.4605 1.06006 11.7901V7.80112C1.05989 7.79363 1.05989 7.78612 1.06006 7.77859V6.01011C1.06006 5.3397 1.228 4.74506 1.65151 4.32156C2.07502 3.89805 2.66966 3.73011 3.34006 3.73011H5.06006V2.00011C5.06006 1.63146 5.20651 1.2779 5.46719 1.01723C5.72786 0.756553 6.08141 0.610107 6.45006 0.610107H9.57006C9.93871 0.610107 10.2923 0.756553 10.5529 1.01723C10.8136 1.2779 10.9601 1.63146 10.9601 2.00011ZM13.9601 6.01011V7.45756C13.0767 7.81722 12.1623 8.09608 11.228 8.2906C10.9577 8.34689 10.7842 8.61168 10.8405 8.88202C10.8967 9.15236 11.1615 9.32589 11.4319 9.2696C12.293 9.0903 13.1383 8.84361 13.9601 8.53198V11.7901C13.9601 12.3064 13.8313 12.6017 13.6615 12.7716C13.4917 12.9414 13.1963 13.0701 12.6801 13.0701H3.34006C2.8238 13.0701 2.52844 12.9414 2.35862 12.7716C2.18879 12.6017 2.06006 12.3064 2.06006 11.7901V8.53172C2.88516 8.84422 3.73407 9.09107 4.59889 9.26976C4.86932 9.32563 5.13384 9.1517 5.18972 8.88127C5.2456 8.61084 5.07167 8.34632 4.80124 8.29044C3.86384 8.09676 2.94632 7.8179 2.06006 7.45748V6.01011C2.06006 5.49385 2.18879 5.19849 2.35862 5.02866C2.52844 4.85884 2.8238 4.73011 3.34006 4.73011H12.6801C13.1963 4.73011 13.4917 4.85884 13.6615 5.02866C13.8313 5.19849 13.9601 5.49385 13.9601 6.01011ZM6.9761 6.52961C7.15048 6.42545 7.33621 6.35603 7.51002 6.31136V6.2301C7.51002 5.95396 7.73387 5.7301 8.01002 5.7301C8.28616 5.7301 8.51002 5.95396 8.51002 6.2301V6.30158C8.87154 6.39186 9.26758 6.60077 9.55297 7.05346C9.70024 7.28706 9.63025 7.59581 9.39666 7.74308C9.16306 7.89034 8.85431 7.82036 8.70704 7.58676C8.54306 7.32664 8.29403 7.24894 8.03341 7.24015C7.90778 7.24148 7.66909 7.28048 7.48891 7.38811C7.4039 7.43889 7.34773 7.49539 7.31393 7.5553C7.2826 7.61086 7.25402 7.69779 7.26778 7.84296L7.26796 7.84484C7.28187 7.9979 7.35196 8.1002 7.4839 8.18887C7.63237 8.28865 7.84554 8.35747 8.08221 8.39692C8.36558 8.44415 8.78092 8.53375 9.13716 8.7531C9.51848 8.98789 9.84434 9.38315 9.85982 9.98648C9.88496 10.8596 9.24488 11.4187 8.5099 11.5811C8.50405 11.8522 8.28249 12.0701 8.01002 12.0701C7.73725 12.0701 7.5155 11.8517 7.51012 11.5802C7.00264 11.4782 6.56116 11.2105 6.30279 10.6937C6.1793 10.4467 6.27941 10.1464 6.5264 10.0229C6.77339 9.8994 7.07372 9.99952 7.19722 10.2465C7.31197 10.476 7.53975 10.6301 8.04001 10.6301H8.04685L8.04685 10.6302C8.59747 10.6377 8.86906 10.3152 8.86022 10.0148L8.86016 10.0126C8.85526 9.81658 8.77129 9.70218 8.61285 9.60462C8.42909 9.49148 8.17443 9.42608 7.91781 9.38331C7.61447 9.33275 7.24264 9.23157 6.92611 9.01886C6.59326 8.79516 6.31849 8.44276 6.27215 7.93633C6.2411 7.60687 6.30255 7.31288 6.44295 7.06398C6.58103 6.81921 6.77861 6.64758 6.9761 6.52961Z" fill="currentColor"/>
</svg>

<svg xmlns="http://www.w3.org/2000/svg" fill="none" viewBox="0 0 16 16">
  <path fill="currentColor" fill-rule="evenodd" d="M6.174 1.724a.39.39 0 0 1 .276-.114h3.12a.39.39 0 0 1 .39.39v1.73h-3.9V2a.39.39 0 0 1 .114-.276ZM10.96 2v1.73h1.72c.67 0 1.265.168 1.689.592.423.423.591 1.018.591 1.688v5.78c0 .67-.168 1.265-.591 1.689-.424.423-1.018.591-1.689.591H3.34c-.67 0-1.265-.168-1.688-.591-.424-.424-.592-1.018-.592-1.689V6.01c0-.67.168-1.265.592-1.688.423-.424 1.018-.592 1.688-.592h1.72V2A1.39 1.39 0 0 1 6.45.61h3.12A1.39 1.39 0 0 1 10.96 2Zm3 4.01v1.448a15.77 15.77 0 0 1-2.732.833.5.5 0 0 0 .204.979c.861-.18 1.706-.426 2.528-.738v3.258c0 .516-.129.812-.299.982-.17.17-.465.298-.98.298H3.34c-.517 0-.813-.129-.982-.298-.17-.17-.299-.466-.299-.982V8.532c.825.312 1.674.56 2.539.738a.5.5 0 0 0 .202-.98 15.72 15.72 0 0 1-2.74-.833V6.01c0-.516.128-.812.298-.981.17-.17.465-.299.981-.299h9.34c.516 0 .812.129.982.299.17.17.298.465.298.981Zm-6.984.52a2.03 2.03 0 0 1 .534-.219v-.08a.5.5 0 1 1 1 0v.07c.362.09.758.3 1.043.752a.5.5 0 0 1-.846.534c-.164-.26-.413-.338-.674-.347-.125.001-.364.04-.544.148a.469.469 0 0 0-.175.167.473.473 0 0 0-.046.288v.002a.435.435 0 0 0 .216.344c.148.1.362.168.598.208.284.047.699.137 1.055.356.381.235.707.63.723 1.233.025.874-.615 1.433-1.35 1.595a.5.5 0 0 1-1 0c-.507-.103-.949-.37-1.207-.887a.5.5 0 1 1 .894-.448c.115.23.343.384.843.384h.007c.55.008.822-.315.813-.615v-.002c-.005-.196-.089-.31-.247-.408-.184-.114-.439-.179-.695-.222-.304-.05-.675-.151-.992-.364a1.432 1.432 0 0 1-.654-1.083c-.03-.33.03-.623.17-.872.139-.245.337-.416.534-.534Z" clip-rule="evenodd"/>
</svg>
